fs/animal_dog_24_filled.svg

<svg viewBox="0 0 24 24" fill="none" xmlns="http://www.w3.org/2000/svg" height="1em" width="1em">
  <path d="M10.8755 8.66109C11.2633 8.87708 11.7237 8.99978 12.246 8.99978C13.0932 8.99978 13.8013 8.69298 14.2926 8.15625C14.7742 7.63006 14.996 6.93974 14.996 6.25C14.996 5.83579 14.6602 5.5 14.246 5.5C13.8318 5.5 13.496 5.83579 13.496 6.25C13.496 6.6269 13.3756 6.93646 13.1861 7.14351C13.0062 7.34 12.7144 7.49978 12.246 7.49978C11.7974 7.49978 11.5155 7.33774 11.332 7.12921C11.1473 6.9194 11.0279 6.62077 11 6.2896V4.25002C11 3.00796 12.0059 2.00003 13.2491 2.00002L16.4346 2C16.9438 2 17.442 2.14136 17.8752 2.40794L20.6431 4.11126C20.8649 4.24776 21 4.48955 21 4.75V6.25C21 7.49264 19.9926 8.5 18.75 8.5H18.5V18.0329C19.4194 18.1215 20.1183 18.3993 20.5471 18.9975C20.8038 19.3557 20.9075 19.7575 20.9548 20.1257C21.0001 20.4778 21 20.862 21 21.2162V21.25C21 21.6642 20.6642 22 20.25 22H16.9983L16.9983 21.2256C16.9986 20.6541 16.9996 19.0178 15.4983 18.0572V15.2527C15.4983 14.8385 15.1625 14.5027 14.7483 14.5027C14.334 14.5027 13.9983 14.8385 13.9983 15.2527V17.5189C13.8358 17.5012 13.6688 17.493 13.4983 17.493C13.4248 17.493 13.3528 17.495 13.301 17.497C13.2747 17.4979 13.2525 17.4989 13.2366 17.4996L13.2176 17.5006L13.212 17.5009L13.2093 17.501C12.7957 17.5235 12.4786 17.877 12.5011 18.2906C12.5236 18.7042 12.8774 19.0213 13.291 18.9988L13.2938 18.9986L13.3069 18.998L13.3562 18.9959C13.3982 18.9944 13.4503 18.993 13.4983 18.993C13.93 18.993 14.2134 19.0659 14.399 19.1636C14.4098 19.1693 14.4207 19.1747 14.4317 19.1798C15.4709 19.6636 15.4983 20.6188 15.4983 21.2499V22H5.83333C3.71624 22 2 20.2838 2 18.1667C2 16.7686 2.74891 15.5462 3.86385 14.8774C4.21907 14.6644 4.67975 14.7796 4.89281 15.1348C5.10587 15.49 4.99062 15.9507 4.63541 16.1638C3.95359 16.5727 3.5 17.3171 3.5 18.1667C3.5 19.4553 4.54467 20.5 5.83333 20.5C6.15188 20.5 6.34997 20.4168 6.48162 20.3242C6.62082 20.2262 6.72963 20.086 6.81348 19.9168C6.89798 19.7464 6.94675 19.5671 6.97352 19.4243C6.98658 19.3546 6.99358 19.2981 6.9972 19.2618C6.99876 19.246 6.99967 19.2343 7.00015 19.2273L7.00059 19.1925C7.00115 19.1586 7.00224 19.1104 7.00436 19.0493C7.00859 18.9273 7.01695 18.7535 7.03348 18.5397C7.06646 18.1132 7.13235 17.5223 7.26464 16.8627C7.52372 15.5707 8.06051 13.8945 9.21612 12.7232C10.0641 11.8638 10.525 10.6045 10.7634 9.35924C10.809 9.12116 10.8458 8.88724 10.8755 8.66109Z" fill="#212121"/>
</svg>

<svg viewBox="0 0 24 24" fill="none" xmlns="http://www.w3.org/2000/svg" height="1em" width="1em">
  <path d="M10.876 8.661c.387.216.848.339 1.37.339.847 0 1.555-.307 2.047-.844.481-.526.703-1.216.703-1.906a.75.75 0 0 0-1.5 0c0 .377-.12.686-.31.894-.18.196-.472.356-.94.356-.449 0-.73-.162-.914-.37A1.46 1.46 0 0 1 11 6.29V4.25A2.25 2.25 0 0 1 13.25 2h3.185c.509 0 1.007.141 1.44.408l2.768 1.703A.75.75 0 0 1 21 4.75v1.5a2.25 2.25 0 0 1-2.25 2.25h-.25v9.533c.92.088 1.618.366 2.047.964.257.359.36.76.408 1.129.045.352.045.736.045 1.09v.034a.75.75 0 0 1-.75.75h-3.252v-.774c0-.572.002-2.208-1.5-3.169v-2.804a.75.75 0 0 0-1.5 0v2.266a4.622 4.622 0 0 0-.697-.022c-.026 0-.049.002-.064.003h-.025l-.003.001a.75.75 0 1 0 .082 1.498h.003l.013-.001.05-.002c.041-.002.093-.003.141-.003.432 0 .715.073.901.17l.033.017c1.039.484 1.066 1.439 1.066 2.07V22H5.833a3.833 3.833 0 0 1-1.97-7.123.75.75 0 0 1 .772 1.287A2.333 2.333 0 0 0 5.833 20.5c.319 0 .517-.083.649-.176.139-.098.248-.238.331-.407a1.928 1.928 0 0 0 .187-.69v-.035l.004-.143a14.198 14.198 0 0 1 .26-2.187c.26-1.291.797-2.968 1.952-4.139.848-.86 1.309-2.119 1.547-3.364.046-.238.083-.472.113-.698Z" fill="#212121"/>
</svg>
